X: 16046
T: Green Cottage, The
R: polka
M: 2/4
K: Eminor
B/c/B/A/|:GE E/F/E/D/|B,E E>F|GF ED|GA B>A|
GE E/F/E/D/|B,E E2|B/c/B/A/ GF|1 E2 B/c/B/A/:|2 E2 E2||
|:Be ef|eB c/B/A|Be ed|e2 ef|
g2 fg/f/|ed BA|BE E/F/G/A/|B2 B/c/B/A/:|

